X: 28
T: Vostre bargeronette m'amiette
N: Derived from Com3048-Vostre_bargeronette_mamiette.krn
C: Loyset Comp\`ere
%%abc-version 2.0
%%abcx-abcm2ps-target-version 5.9.1 (29 Sep 2008)
%%abc-creator hum2abc beta
%%abcx-conversion-date 2019/02/16 20:28:09
%%abc-edited-by Jesse Rodin
%%abc-edited-by Megan K. Eagen 2013/11/29
%%abcx-initial-encoding-date 2013/11/29/
%%humdrum-veritas 4248742638
%%humdrum-veritas-data 1597388901
%%linebreak <none>
%%barnumbers 0
L: 1/4
M: 2/1
Q: 1/2=120
%%staves [1 2 3 4]
V: 1 clef=treble
V: 2 clef=treble-8
V: 3 clef=treble-8
V: 4 clef=bass
K: F
[V:1] z8 | 
[V:2] c4c2d2 | 
[V:3] z8 | 
[V:4] z8 | 
[V:1] z8 | 
[V:2] e3fg2g2 | 
[V:3] z8 | 
[V:4] C,4C,2C,2 | 
[V:1] z8 | 
[V:2] f3e/d/c2d2- | 
[V:3] F4F2F2 | 
[V:4] D,3E,F,2F,2 | 
[V:1] z4F4 | 
[V:2] d2^c2d4- | 
[V:3] G3AB2B2 | 
[V:4] E,4D,4- | 
[V:1] F2F2G3A | 
[V:2] d4z4 | 
[V:3] A4G4- | 
[V:4] D,4z4 | 
[V:1] B2B2A4 | 
[V:2] z2d4c2 | 
[V:3] G2D3EF2 | 
[V:4] z8 | 
[V:1] G4z2A2- | 
[V:2] B4A4 | 
[V:3] G4D4 | 
[V:4] z2G,4F,2 | 
[V:1] A2G2F4 | 
[V:2] z8 | 
[V:3] z4z2A2- | 
[V:4] E,4D,4 | 
[V:1] E4A4 | 
[V:2] z4c4 | 
[V:3] A2G2F4 | 
[V:4] z8 | 
[V:1] G4F2ED | 
[V:2] c2c2d3e | 
[V:3] E4z4 | 
[V:4] C,4F,4 | 
[V:1] C4z4 | 
[V:2] f2f2e4 | 
[V:3] z8 | 
[V:4] F,2F,2G,3A, | 
[V:1] F4F2F2 | 
[V:2] d4z4 | 
[V:3] z8 | 
[V:4] B,2B,2A,4 | 
[V:1] G3AB2B2 | 
[V:2] e6d2 | 
[V:3] z8 | 
[V:4] G,8 | 
[V:1] A6GF | 
[V:2] c8 | 
[V:3] F4F2F2 | 
[V:4] z8 | 
[V:1] E2D4G2- | 
[V:2] z2B3AG2 | 
[V:3] G3AB2B2 | 
[V:4] z4G,4 | 
[V:1] G2F2G4 | 
[V:2] d2d4c2 | 
[V:3] A4G4 | 
[V:4] D,4E,4 | 
[V:1] z8 | 
[V:2] d4c4 | 
[V:3] A6G2 | 
[V:4] D,2F,4E,2 | 
[V:1] A6G2 | 
[V:2] d4z2G2 | 
[V:3] F2EDC4 | 
[V:4] D,2F,4E,2 | 
[V:1] F2EDC2G2- | 
[V:2] A3Bc2c2- | 
[V:3] F3GABc2 | 
[V:4] D,2F,4E,2 | 
[V:1] GFF4E2 | 
[V:2] c2B2c4 | 
[V:3] BAGFG4 | 
[V:4] D,4C,4 | 
[V:1] !fermata!F8 | 
[V:2] !fermata!c8 | 
[V:3] !fermata!F8 | 
[V:4] !fermata!F,8 | 
[V:1] z8 | 
[V:2] z8 | 
[V:3] F4G2A2 | 
[V:4] z8 | 
[V:1] F4G2A2 | 
[V:2] z8 | 
[V:3] B6A2 | 
[V:4] z8 | 
[V:1] B4B4 | 
[V:2] z8 | 
[V:3] G2FED2d2- | 
[V:4] z8 | 
[V:1] A4G4 | 
[V:2] z8 | 
[V:3] dcA2B2c2 | 
[V:4] z8 | 
[V:1] A8 | 
[V:2] z8 | 
[V:3] F4z2F2 | 
[V:4] z4D,4- | 
[V:1] z8 | 
[V:2] F4G2A2 | 
[V:3] A2B2c4 | 
[V:4] D,4C,2C,2 | 
[V:1] z8 | 
[V:2] B6B2 | 
[V:3] d2e2d2f2- | 
[V:4] G,6D,2 | 
[V:1] z8 | 
[V:2] A4G4 | 
[V:3] fed4^c2 | 
[V:4] F,4E,4 | 
[V:1] z8 | 
[V:2] A4z2d2- | 
[V:3] d4A4 | 
[V:4] D,8 | 
[V:1] z8 | 
[V:2] d2e2d2cB | 
[V:3] z2B4AG | 
[V:4] G,4G,2G,G, | 
[V:1] z8 | 
[V:2] c4F2B2- | 
[V:3] F4z4 | 
[V:4] A,6G,2 | 
[V:1] z8 | 
[V:2] BAA4G2 | 
[V:3] c4c2cc | 
[V:4] F,4E,4 | 
[V:1] F4F2FF | 
[V:2] A8 | 
[V:3] d6c2 | 
[V:4] D,3E,F,4 | 
[V:1] G4z2G2 | 
[V:2] z8 | 
[V:3] c3BA2G2 | 
[V:4] C,8 | 
[V:1] A3GF2E2 | 
[V:2] c4c2cc | 
[V:3] F4z4 | 
[V:4] z2F,3G,A,2 | 
[V:1] D4z4 | 
[V:2] d6c2 | 
[V:3] z8 | 
[V:4] B,2G,2D,2F,2- | 
[V:1] F4F2G2 | 
[V:2] c3BA2G2 | 
[V:3] z8 | 
[V:4] F,G,A,2D,3E, | 
[V:1] A3Bc2c2 | 
[V:2] F4z4 | 
[V:3] c4c2c2 | 
[V:4] F,4A,4 | 
[V:1] B4A4 | 
[V:2] z4c4 | 
[V:3] d3ef2f2 | 
[V:4] G,4F,4 | 
[V:1] z4F4 | 
[V:2] c2c2d3e | 
[V:3] e4d4 | 
[V:4] C,4z4 | 
[V:1] F2F2G3A | 
[V:2] f2f2e4 | 
[V:3] z8 | 
[V:4] D,4C,4 | 
[V:1] B2B2A4- | 
[V:2] d3ef4 | 
[V:3] z4F4 | 
[V:4] G,4C4- | 
[V:1] A2GFE2D2- | 
[V:2] z4B3c | 
[V:3] F2F2G3A | 
[V:4] C4z4 | 
[V:1] D2G4F2 | 
[V:2] d2e2d4 | 
[V:3] B2B2A4 | 
[V:4] G,4D,4 | 
[V:1] G2F4E2 | 
[V:2] z2c4c2 | 
[V:3] G2A4G2 | 
[V:4] z2F,4C,2 | 
[V:1] D4C4- | 
[V:2] A4A4 | 
[V:3] F4E4- | 
[V:4] D,4A,,4- | 
[V:1] C4z4 | 
[V:2] z4F4- | 
[V:3] E4z4 | 
[V:4] A,,4D,4 | 
[V:1] C6D2 | 
[V:2] F2G2A3B | 
[V:3] z8 | 
[V:4] F,2E,2F,2D,2 | 
[V:1] E3FG2G2 | 
[V:2] c2c2B4 | 
[V:3] z8 | 
[V:4] C,4G,4 | 
[V:1] F4D4 | 
[V:2] A6B2 | 
[V:3] F6G2 | 
[V:4] D,4z4 | 
[V:1] z8 | 
[V:2] c4F2f2- | 
[V:3] A3Bc2c2 | 
[V:4] F,4F,2F,2 | 
[V:1] z8 | 
[V:2] f2edd2^c2 | 
[V:3] B4G4 | 
[V:4] G,2D,2E,4 | 
[V:1] F4F2G2 | 
[V:2] d4z2c2 | 
[V:3] A6G2 | 
[V:4] D,3E,F,2C,2 | 
[V:1] A3Bc4 | 
[V:2] c3de2f2 | 
[V:3] F4z2c2 | 
[V:4] z2C3B,A,2 | 
[V:1] B4G4 | 
[V:2] g3fd2e2- | 
[V:3] d4B2c2- | 
[V:4] G,4z2C,2- | 
[V:1] A6G2- | 
[V:2] edc4c2- | 
[V:3] c2A2F2c2 | 
[V:4] C,2F,3E,C,2 | 
[V:1] GFF4E2 | 
[V:2] c2B2c4 | 
[V:3] BAGFG4 | 
[V:4] D,4C,4 | 
[V:1] F8 |]  
[V:2] c8 |]  
[V:3] F8 |]  
[V:4] F,8 |]  



